X:250
T:Irish Lilt, An
B:Kerr's Merry Melodies Bk.2, p27
Z:Nigel Gatherer
M:6/8
L:1/8
K:A
EAA cAA|eAA cAA|EAA cAA|BAB cAA|EAA cAA|eAA cAA|
aga ecA|BAB cAA::aga ecA|cAc efg|aga ecA|BAB cAA|
aga ecA|cAc efg|aga ecA|BAB cAA::EAA cee|dff cee|
EAA cee|BAB cAA|EAA cee|dff cee|aga ecA|BAB cAA:|
<end>
<start>
